theme-base/src/main/assets/themes/mapsforgeV3/base/symbols/db_poi_bus_and_tram_stop.svg

<svg enable-background="new 0 0 48 48" height="48" viewBox="0 0 48 48" width="48" xmlns="http://www.w3.org/2000/svg"><path d="m2 33c0 1.76.78 3.34 2 4.439v3.561c0 1.1.9 2 2 2h2c1.1 0 2-.9 2-2v-2h16v2c0 1.1.9 2 2 2h2c1.1 0 2-.9 2-2v-3.561c1.221-1.1 2-2.68 2-4.439v-20c0-7-7.16-8-16-8s-16 1-16 8zm7 2c-1.66 0-3-1.34-3-3s1.34-3 3-3 3 1.34 3 3-1.34 3-3 3zm18 0c-1.66 0-3-1.34-3-3s1.34-3 3-3 3 1.34 3 3-1.34 3-3 3zm3-12h-24v-10h24z"/><path d="m40 8h4v35h-4z"/><circle cx="42" cy="10" r="6"/></svg>

<?xml version="1.0" encoding="utf-8"?>
<!-- Generator: Adobe Illustrator 15.0.2, SVG Export Plug-In . SVG Version: 6.00 Build 0)  -->
<!DOCTYPE svg PUBLIC "-//W3C//DTD SVG 1.1//EN" "http://www.w3.org/Graphics/SVG/1.1/DTD/svg11.dtd">
<svg version="1.1" id="Vrstva_3" xmlns="http://www.w3.org/2000/svg" xmlns:xlink="http://www.w3.org/1999/xlink" x="0px" y="0px"
	 width="48px" height="48px" viewBox="0 0 48 48" enable-background="new 0 0 48 48" xml:space="preserve">
<path d="M2,33c0,1.76,0.78,3.34,2,4.439V41c0,1.1,0.9,2,2,2h2c1.1,0,2-0.9,2-2v-2h16v2c0,1.1,0.9,2,2,2h2c1.1,0,2-0.9,2-2v-3.561
	c1.221-1.1,2-2.68,2-4.439V13c0-7-7.16-8-16-8S2,6,2,13V33z M9,35c-1.66,0-3-1.34-3-3s1.34-3,3-3s3,1.34,3,3S10.66,35,9,35z M27,35
	c-1.66,0-3-1.34-3-3s1.34-3,3-3s3,1.34,3,3S28.66,35,27,35z M30,23H6V13h24V23z"/>
<rect x="40" y="8" width="4" height="35"/>
<circle cx="42" cy="10" r="6"/>
</svg>
